X: 2978
T: Bass Rock, The
R: reel
M: 4/4
K: Amajor
~A3 e f2 ec|B ~a3 fbaf|e2 af ecAB|cABc A ~F3|
AAeA f2 ec|B ~a3 fbaf|eafe c3 e|1 fecB AFEF:|2 fecB AAB/c/d/e/||
|:a3 e faaf|b3 c' bafe|~a3 e fz af|ecBc A ~F3|
[1 ~a3 e f ~a3|b3 c' bafe|~a3 e fz af|ecBc ABce:|
[2 ABce faaf|b3 c' baf z|c'bac' bafz|z efc ecBF||

